;FLAVOR:Marlin
;TIME:1574
;Filament used: 1.06384m
;Layer height: 0.16
;MINX:26.597
;MINY:24.384
;MINZ:0.2
;MAXX:109.677
;MAXY:69.966
;MAXZ:5.16
;TARGET_MACHINE.NAME:Kingroon KP3S Pro
;Generated with Cura_SteamEngine 5.7.1
M140 S70
M105
M190 S70
M104 S215
M105
M109 S215
M82 ;absolute extrusion mode
G28 ; home all axes
 M117 Purge extruder
 G92 E0 ; reset extruder
 G1 Z1.0 F3000 ; move z up little to prevent scratching of surface
 G1 X2 Y20 Z0.3 F5000.0 ; move to start-line position
 G1 X2 Y175.0 Z0.3 F1500.0 E15 ; draw 1st line
 G1 X2 Y175.0 Z0.4 F5000.0 ; move to side a little
 G1 X2 Y20 Z0.4 F1500.0 E30 ; draw 2nd line
 G92 E0 ; reset extruder
 G1 Z1.0 F3000 ; move z up little to prevent scratching of surface
G92 E0
G92 E0
G1 F2400 E-1
;LAYER_COUNT:26
;LAYER:0
M107
G1 F240 Z0.52
G0 F6000 X29.531 Y28.243 Z0.52
;TYPE:SKIRT
G1 F240 Z0.2
G1 F2400 E0
G1 F900 X30.24 Y27.513 E0.03723
G1 X30.922 Y26.92 E0.0703
G1 X31.843 Y26.252 E0.11192
G1 X32.619 Y25.788 E0.145
G1 X33.646 Y25.293 E0.18671
G1 X34.602 Y24.937 E0.22403
G1 X35.584 Y24.666 E0.26131
G1 X36.473 Y24.5 E0.29439
G1 X37.607 Y24.392 E0.33607
G1 X38.587 Y24.387 E0.37192
G1 X39.606 Y24.471 E0.40933
G1 X40.645 Y24.652 E0.44792
G1 X41.486 Y24.873 E0.47973
G1 X43.418 Y25.457 E0.55357
G1 X45.897 Y26.139 E0.64764
G1 X48.314 Y26.731 E0.73868
G1 X50.715 Y27.247 E0.82853
G1 X53.216 Y27.711 E0.9216
G1 X55.706 Y28.105 E1.01383
G1 X58.165 Y28.417 E1.10451
G1 X60.645 Y28.661 E1.19569
G1 X63.144 Y28.838 E1.28734
G1 X65.685 Y28.946 E1.38039
G1 X68.152 Y28.981 E1.47066
G1 X70.635 Y28.944 E1.56151
G1 X73.191 Y28.836 E1.65511
G1 X75.628 Y28.663 E1.7445
G1 X78.182 Y28.408 E1.8384
G1 X80.598 Y28.099 E1.92751
G1 X83.092 Y27.706 E2.01989
G1 X85.56 Y27.248 E2.11172
G1 X87.981 Y26.728 E2.20232
G1 X90.431 Y26.127 E2.29461
G1 X92.898 Y25.447 E2.38824
G1 X94.844 Y24.858 E2.46262
G1 X95.759 Y24.626 E2.49716
G1 X96.844 Y24.453 E2.53735
G1 X97.862 Y24.384 E2.57468
G1 X98.844 Y24.403 E2.61062
G1 X99.896 Y24.517 E2.64933
G1 X100.895 Y24.717 E2.68661
G1 X101.763 Y24.968 E2.71967
G1 X102.826 Y25.381 E2.76139
G1 X103.738 Y25.836 E2.79868
G1 X104.543 Y26.328 E2.83319
G1 X105.395 Y26.958 E2.87196
G1 X106.188 Y27.663 E2.91078
G1 X106.884 Y28.404 E2.94798
G1 X107.446 Y29.112 E2.98105
G1 X108.071 Y30.066 E3.02277
G1 X108.533 Y30.932 E3.05869
G1 X108.919 Y31.834 E3.09458
G1 X109.259 Y32.881 E3.13486
G1 X109.484 Y33.874 E3.17211
G1 X109.609 Y34.769 E3.20517
G1 X109.664 Y35.656 E3.23768
G1 X109.677 Y36.347 E3.26297
G1 X109.676 Y53.828 E3.90253
G1 X109.663 Y54.613 E3.93126
G1 X109.599 Y55.631 E3.96857
G1 X109.453 Y56.604 E4.00457
G1 X109.202 Y57.633 E4.04332
G1 X108.873 Y58.599 E4.08066
G1 X108.477 Y59.497 E4.11656
G1 X107.966 Y60.423 E4.15526
G1 X107.441 Y61.207 E4.18978
G1 X106.75 Y62.06 E4.22994
G1 X106.096 Y62.739 E4.26443
G1 X105.265 Y63.46 E4.30469
G1 X104.435 Y64.057 E4.34209
G1 X103.591 Y64.557 E4.37798
G1 X102.65 Y65.01 E4.41619
G1 X101.959 Y65.279 E4.44332
G1 X101.14 Y65.566 E4.47507
G1 X90.258 Y69.194 E4.89474
G1 X89.545 Y69.421 E4.92212
G1 X88.672 Y69.657 E4.95521
G1 X87.535 Y69.856 E4.99744
G1 X86.332 Y69.944 E5.04157
G1 X85.119 Y69.966 E5.08595
G1 X50.734 Y69.966 E6.34397
G1 X50.001 Y69.953 E6.37079
G1 X48.983 Y69.888 E6.40811
G1 X47.961 Y69.731 E6.44594
G1 X46.826 Y69.443 E6.48878
G1 X45.596 Y69.056 E6.53596
G1 X35.015 Y65.529 E6.94402
G1 X34.308 Y65.282 E6.97142
G1 X33.362 Y64.901 E7.00873
G1 X32.521 Y64.475 E7.04322
G1 X31.589 Y63.892 E7.08344
G1 X30.775 Y63.276 E7.12079
G1 X30.022 Y62.591 E7.15803
G1 X29.405 Y61.93 E7.19111
G1 X28.705 Y61.03 E7.23283
G1 X28.157 Y60.17 E7.27014
G1 X27.687 Y59.267 E7.30738
G1 X27.338 Y58.433 E7.34046
G1 X26.992 Y57.346 E7.38219
G1 X26.796 Y56.464 E7.41525
G1 X26.651 Y55.352 E7.45628
G1 X26.611 Y54.584 E7.48441
G1 X26.598 Y53.743 E7.51519
G1 X26.597 Y36.585 E8.14293
G1 X26.611 Y35.689 E8.17572
G1 X26.676 Y34.671 E8.21304
G1 X26.823 Y33.699 E8.249
G1 X27.074 Y32.67 E8.28775
G1 X27.404 Y31.706 E8.32503
G1 X27.818 Y30.773 E8.36238
G1 X28.272 Y29.947 E8.39686
G1 X28.886 Y29.034 E8.43711
G1 X29.531 Y28.243 E8.47446
G0 F6000 X29.847 Y28.549
G1 F900 X30.529 Y27.845 E8.51032
G1 X31.211 Y27.252 E8.54338
G1 X32.069 Y26.63 E8.58215
G1 X32.845 Y26.166 E8.61523
G1 X33.8 Y25.705 E8.65403
G1 X34.72 Y25.361 E8.68997
G1 X35.665 Y25.099 E8.72584
G1 X36.554 Y24.933 E8.75893
G1 X37.61 Y24.832 E8.79774
G1 X38.551 Y24.826 E8.83217
G1 X39.57 Y24.91 E8.86958
G1 X40.534 Y25.078 E8.90538
G1 X41.359 Y25.294 E8.93658
G1 X43.301 Y25.881 E9.0108
G1 X45.782 Y26.564 E9.10495
G1 X48.216 Y27.16 E9.19663
G1 X50.635 Y27.68 E9.28716
G1 X53.147 Y28.146 E9.38063
G1 X55.637 Y28.539 E9.47286
G1 X58.122 Y28.855 E9.5645
G1 X60.607 Y29.1 E9.65586
G1 X63.125 Y29.278 E9.74822
G1 X65.666 Y29.386 E9.84127
G1 X68.153 Y29.421 E9.93226
G1 X70.654 Y29.384 E10.02378
G1 X73.21 Y29.276 E10.11737
G1 X75.669 Y29.101 E10.20757
G1 X78.226 Y28.846 E10.30158
G1 X80.666 Y28.534 E10.39158
G1 X83.168 Y28.14 E10.48425
G1 X85.64 Y27.681 E10.57623
G1 X88.079 Y27.157 E10.6675
G1 X90.546 Y26.552 E10.76043
G1 X93.015 Y25.871 E10.85414
G1 X94.952 Y25.285 E10.92818
G1 X95.867 Y25.053 E10.96271
G1 X96.874 Y24.892 E11.00002
G1 X97.853 Y24.824 E11.03593
G1 X98.835 Y24.843 E11.07186
G1 X99.81 Y24.949 E11.10774
G1 X100.773 Y25.14 E11.14366
G1 X101.641 Y25.391 E11.17672
G1 X102.63 Y25.775 E11.21554
G1 X103.509 Y26.212 E11.25145
G1 X104.281 Y26.682 E11.28452
G1 X105.133 Y27.312 E11.32329
G1 X105.868 Y27.965 E11.35926
G1 X106.539 Y28.678 E11.39508
G1 X107.101 Y29.386 E11.42815
G1 X107.683 Y30.274 E11.46699
G1 X108.128 Y31.105 E11.50148
G1 X108.514 Y32.007 E11.53738
G1 X108.83 Y32.979 E11.57477
G1 X109.048 Y33.935 E11.61064
G1 X109.173 Y34.83 E11.64371
G1 X109.224 Y35.664 E11.67428
G1 X109.237 Y36.347 E11.69927
G1 X109.236 Y53.821 E12.33858
G1 X109.224 Y54.586 E12.36657
G1 X109.164 Y55.566 E12.40249
G1 X109.018 Y56.539 E12.43849
G1 X108.785 Y57.492 E12.47438
G1 X108.47 Y58.421 E12.51027
G1 X108.074 Y59.319 E12.54618
G1 X107.6 Y60.178 E12.58207
G1 X107.075 Y60.962 E12.61659
G1 X106.433 Y61.755 E12.65392
G1 X105.779 Y62.434 E12.68841
G1 X105.008 Y63.103 E12.72576
G1 X104.211 Y63.678 E12.76171
G1 X103.367 Y64.178 E12.7976
G1 X102.49 Y64.6 E12.83321
G1 X101.813 Y64.864 E12.8598
G1 X101.001 Y65.149 E12.89128
G1 X90.124 Y68.775 E13.31076
G1 X89.43 Y68.996 E13.33741
G1 X88.557 Y69.232 E13.37049
G1 X87.503 Y69.417 E13.40964
G1 X86.324 Y69.504 E13.4529
G1 X85.111 Y69.526 E13.49728
G1 X50.741 Y69.526 E14.75475
G1 X50.028 Y69.514 E14.78084
G1 X49.049 Y69.453 E14.81673
G1 X48.069 Y69.304 E14.85299
G1 X46.958 Y69.023 E14.89492
G1 X45.735 Y68.639 E14.94182
G1 X35.16 Y65.114 E15.34964
G1 X34.472 Y64.874 E15.3763
G1 X33.561 Y64.508 E15.41222
G1 X32.72 Y64.082 E15.44671
G1 X31.854 Y63.541 E15.48407
G1 X31.071 Y62.95 E15.51996
G1 X30.344 Y62.291 E15.55586
G1 X29.727 Y61.63 E15.58894
G1 X29.076 Y60.793 E15.62774
G1 X28.547 Y59.966 E15.66366
G1 X28.093 Y59.097 E15.69953
G1 X27.744 Y58.263 E15.7326
G1 X27.422 Y57.251 E15.77146
G1 X27.226 Y56.369 E15.80451
G1 X27.09 Y55.329 E15.84289
G1 X27.051 Y54.577 E15.87044
G1 X27.038 Y53.743 E15.90095
G1 X27.037 Y36.592 E16.52844
G1 X27.05 Y35.716 E16.5605
G1 X27.111 Y34.737 E16.59638
G1 X27.258 Y33.765 E16.63235
G1 X27.491 Y32.812 E16.66824
G1 X27.807 Y31.884 E16.70411
G1 X28.204 Y30.985 E16.74006
G1 X28.658 Y30.159 E16.77455
G1 X29.228 Y29.311 E16.81193
G1 X29.847 Y28.549 E16.84785
G0 F6000 X30.163 Y28.855
G1 F900 X30.818 Y28.177 E16.88234
G1 X31.5 Y27.584 E16.9154
G1 X32.295 Y27.008 E16.95132
G1 X33.071 Y26.544 E16.9844
G1 X33.955 Y26.117 E17.02032
G1 X34.838 Y25.785 E17.05483
G1 X35.746 Y25.532 E17.08932
G1 X36.635 Y25.366 E17.1224
G1 X37.613 Y25.272 E17.15835
G1 X38.554 Y25.266 E17.19278
G1 X39.495 Y25.344 E17.22733
G1 X40.423 Y25.504 E17.26178
G1 X41.232 Y25.715 E17.29237
G1 X43.184 Y26.305 E17.36697
G1 X45.667 Y26.989 E17.4612
G1 X48.118 Y27.589 E17.55352
G1 X50.555 Y28.113 E17.64472
G1 X53.071 Y28.58 E17.73834
G1 X55.569 Y28.973 E17.83086
G1 X58.079 Y29.293 E17.92343
G1 X60.569 Y29.539 E18.01498
G1 X63.106 Y29.718 E18.10803
G1 X65.647 Y29.826 E18.20108
G1 X68.153 Y29.861 E18.29277
G1 X70.673 Y29.824 E18.38498
G1 X73.229 Y29.716 E18.47857
G1 X75.71 Y29.539 E18.56957
G1 X78.27 Y29.284 E18.6637
G1 X80.734 Y28.969 E18.75458
G1 X83.244 Y28.574 E18.84754
G1 X85.72 Y28.114 E18.93968
G1 X88.177 Y27.586 E19.03162
G1 X90.661 Y26.976 E19.1252
G1 X93.132 Y26.295 E19.21898
G1 X95.06 Y25.712 E19.29267
G1 X95.975 Y25.48 E19.32721
G1 X96.905 Y25.331 E19.36167
G1 X97.845 Y25.264 E19.39614
G1 X98.788 Y25.281 E19.43065
G1 X99.725 Y25.381 E19.46513
G1 X100.651 Y25.563 E19.49965
G1 X101.519 Y25.814 E19.53271
G1 X102.435 Y26.169 E19.56865
G1 X103.28 Y26.588 E19.60316
G1 X104.052 Y27.058 E19.63623
G1 X104.841 Y27.641 E19.67212
G1 X105.548 Y28.267 E19.70667
G1 X106.194 Y28.952 E19.74112
G1 X106.756 Y29.66 E19.77419
G1 X107.295 Y30.482 E19.81015
G1 X107.723 Y31.278 E19.84322
G1 X108.109 Y32.18 E19.87911
G1 X108.401 Y33.077 E19.91362
G1 X108.612 Y33.996 E19.94812
G1 X108.737 Y34.891 E19.98118
G1 X108.784 Y35.672 E20.00981
G1 X108.797 Y36.347 E20.03451
G1 X108.796 Y53.815 E20.6736
G1 X108.785 Y54.56 E20.70086
G1 X108.729 Y55.501 E20.73534
G1 X108.59 Y56.435 E20.76989
G1 X108.368 Y57.351 E20.80438
G1 X108.067 Y58.244 E20.83885
G1 X107.688 Y59.107 E20.87334
G1 X107.234 Y59.933 E20.90782
G1 X106.709 Y60.717 E20.94234
G1 X106.116 Y61.45 E20.97684
G1 X105.462 Y62.129 E21.01133
G1 X104.75 Y62.747 E21.04582
G1 X103.986 Y63.3 E21.08033
G1 X103.176 Y63.782 E21.11481
G1 X102.33 Y64.19 E21.14918
G1 X101.667 Y64.449 E21.17522
G1 X100.862 Y64.732 E21.20644
G1 X89.991 Y68.356 E21.62568
G1 X89.315 Y68.571 E21.65164
G1 X88.442 Y68.807 E21.68472
G1 X87.47 Y68.978 E21.72083
G1 X86.316 Y69.064 E21.76317
G1 X85.103 Y69.086 E21.80755
G1 X50.748 Y69.086 E23.06447
G1 X50.055 Y69.075 E23.08983
G1 X49.114 Y69.018 E23.12432
G1 X48.177 Y68.877 E23.15899
G1 X47.09 Y68.603 E23.2
G1 X45.874 Y68.222 E23.24662
G1 X35.305 Y64.698 E23.65423
G1 X34.635 Y64.465 E23.68018
G1 X33.76 Y64.115 E23.71466
G1 X32.919 Y63.689 E23.74915
G1 X32.119 Y63.19 E23.78365
G1 X31.366 Y62.623 E23.81813
G1 X30.666 Y61.991 E23.85264
G1 X30.049 Y61.33 E23.88572
G1 X29.446 Y60.555 E23.92164
G1 X28.937 Y59.762 E23.95612
G1 X28.499 Y58.927 E23.99062
G1 X28.15 Y58.093 E24.02369
G1 X27.852 Y57.156 E24.05967
G1 X27.656 Y56.274 E24.09272
G1 X27.529 Y55.306 E24.12844
G1 X27.491 Y54.57 E24.1554
G1 X27.478 Y53.743 E24.18566
G1 X27.477 Y36.598 E24.81293
G1 X27.489 Y35.743 E24.84422
G1 X27.546 Y34.802 E24.87871
G1 X27.686 Y33.869 E24.91323
G1 X27.908 Y32.953 E24.94771
G1 X28.21 Y32.061 E24.98216
G1 X28.59 Y31.197 E25.0167
G1 X29.044 Y30.371 E25.05118
G1 X29.57 Y29.588 E25.08569
G1 X30.163 Y28.855 E25.12019
G0 F6000 X30.48 Y29.16
G1 F900 X31.107 Y28.509 E25.15325
G1 X31.789 Y27.916 E25.18632
G1 X32.521 Y27.386 E25.21938
G1 X33.297 Y26.922 E25.25246
G1 X34.111 Y26.529 E25.28553
G1 X34.957 Y26.209 E25.31862
G1 X35.827 Y25.965 E25.35168
G1 X36.716 Y25.799 E25.38477
G1 X37.616 Y25.712 E25.41785
G1 X38.519 Y25.705 E25.45089
G1 X39.421 Y25.778 E25.484
G1 X40.312 Y25.93 E25.51707
G1 X41.105 Y26.136 E25.54704
G1 X43.067 Y26.729 E25.62203
G1 X45.552 Y27.414 E25.71634
G1 X48.025 Y28.019 E25.80949
G1 X50.475 Y28.546 E25.90117
G1 X52.995 Y29.014 E25.99494
G1 X55.501 Y29.407 E26.08775
G1 X58.036 Y29.731 E26.18125
G1 X60.531 Y29.978 E26.27298
G1 X63.087 Y30.158 E26.36673
G1 X65.628 Y30.266 E26.45977
G1 X68.153 Y30.301 E26.55216
G1 X70.692 Y30.264 E26.64507
G1 X73.248 Y30.156 E26.73866
G1 X75.751 Y29.977 E26.83047
G1 X78.314 Y29.722 E26.92471
G1 X80.802 Y29.404 E27.01647
G1 X83.327 Y29.007 E27.10999
G1 X85.801 Y28.546 E27.20206
G1 X88.275 Y28.015 E27.29463
G1 X90.776 Y27.4 E27.38886
G1 X93.249 Y26.719 E27.48271
G1 X95.169 Y26.138 E27.5561
G1 X96.045 Y25.914 E27.58918
G1 X96.937 Y25.77 E27.62224
G1 X97.838 Y25.704 E27.65529
G1 X98.742 Y25.719 E27.68837
G1 X99.641 Y25.813 E27.72144
G1 X100.529 Y25.986 E27.75454
G1 X101.397 Y26.237 E27.7876
G1 X102.24 Y26.564 E27.82068
G1 X103.051 Y26.964 E27.85376
G1 X103.823 Y27.434 E27.88683
G1 X104.55 Y27.971 E27.9199
G1 X105.228 Y28.569 E27.95297
G1 X105.849 Y29.226 E27.98605
G1 X106.411 Y29.934 E28.01912
G1 X106.907 Y30.69 E28.0522
G1 X107.335 Y31.486 E28.08526
G1 X107.691 Y32.317 E28.11834
G1 X107.972 Y33.176 E28.15141
G1 X108.176 Y34.057 E28.18449
G1 X108.301 Y34.952 E28.21755
G1 X108.344 Y35.681 E28.24427
G1 X108.357 Y36.347 E28.26864
G1 X108.356 Y53.809 E28.90751
G1 X108.346 Y54.535 E28.93407
G1 X108.294 Y55.437 E28.96713
G1 X108.162 Y56.332 E29.00023
G1 X107.951 Y57.211 E29.0333
G1 X107.664 Y58.068 E29.06637
G1 X107.302 Y58.896 E29.09943
G1 X106.868 Y59.689 E29.1325
G1 X106.366 Y60.441 E29.16558
G1 X105.799 Y61.145 E29.19865
G1 X105.173 Y61.797 E29.23172
G1 X104.491 Y62.391 E29.26481
G1 X103.76 Y62.922 E29.29787
G1 X102.984 Y63.386 E29.33095
G1 X102.17 Y63.78 E29.36403
G1 X101.521 Y64.034 E29.38953
G1 X100.723 Y64.315 E29.42048
G1 X89.858 Y67.937 E29.8395
G1 X89.2 Y68.146 E29.86476
G1 X88.327 Y68.382 E29.89784
G1 X87.437 Y68.539 E29.93091
G1 X86.308 Y68.624 E29.97233
G1 X85.095 Y68.646 E30.01672
G1 X50.755 Y68.646 E31.27309
G1 X50.081 Y68.636 E31.29775
G1 X49.179 Y68.583 E31.3308
G1 X48.285 Y68.45 E31.36387
G1 X47.198 Y68.176 E31.40489
G1 X46.013 Y67.805 E31.45032
G1 X35.449 Y64.282 E31.85774
G1 X34.798 Y64.056 E31.88295
G1 X33.958 Y63.722 E31.91602
G1 X33.151 Y63.315 E31.94909
G1 X32.383 Y62.838 E31.98217
G1 X31.66 Y62.296 E32.01523
G1 X30.988 Y61.691 E32.04831
G1 X30.371 Y61.03 E32.08139
G1 X29.816 Y60.317 E32.11445
G1 X29.326 Y59.557 E32.14753
G1 X28.905 Y58.757 E32.1806
G1 X28.556 Y57.923 E32.21368
G1 X28.282 Y57.061 E32.24677
G1 X28.086 Y56.179 E32.27983
G1 X27.968 Y55.283 E32.31289
G1 X27.931 Y54.563 E32.33927
G1 X27.918 Y53.743 E32.36927
G1 X27.917 Y36.604 E32.99632
G1 X27.928 Y35.769 E33.02688
G1 X27.981 Y34.867 E33.05993
G1 X28.114 Y33.972 E33.09304
G1 X28.325 Y33.093 E33.12611
G1 X28.613 Y32.237 E33.15915
G1 X28.976 Y31.408 E33.19226
G1 X29.41 Y30.616 E33.22531
G1 X29.913 Y29.864 E33.25841
G1 X30.48 Y29.16 E33.29148
G1 F2400 E32.29148
G1 F240 Z0.52
;MESH:Assembly-Top holder of VS sensors_Body_001.stl
G0 F6000 X41.879 Y49.659 Z0.52
;TYPE:WALL-INNER
G1 F240 Z0.2
G1 F2400 E33.29148
G1 F900 X41.736 Y49.713 E33.29707
G1 X41.449 Y49.785 E33.3079
G1 X41.288 Y49.804 E33.31383
G1 X40.984 Y49.804 E33.32495
G1 X40.826 Y49.785 E33.33077
G1 X40.533 Y49.714 E33.3418
G1 X40.389 Y49.659 E33.34744
G1 X40.125 Y49.523 E33.35831
G1 X39.987 Y49.428 E33.36444
G1 X39.76 Y49.224 E33.3756
G1 X39.66 Y49.113 E33.38107
G1 X39.488 Y48.869 E33.39199
G1 X39.408 Y48.716 E33.39831
G1 F880 X39.263 Y48.32 E33.41409
G1 F883.9 X39.23 Y47.904 E33.42963
G1 F887.9 X39.26 Y47.524 E33.44377
G1 F876.1 X39.301 Y47.373 E33.44965
G1 F891.9 X39.409 Y47.094 E33.46069
G1 F900 X39.485 Y46.947 E33.46675
G1 X39.657 Y46.699 E33.47779
G1 X39.76 Y46.583 E33.48347
G1 X39.984 Y46.383 E33.49445
G1 X40.122 Y46.289 E33.50056
G1 X40.402 Y46.145 E33.51208
G1 X40.548 Y46.09 E33.51779
G1 X40.828 Y46.022 E33.52833
G1 X40.984 Y46.004 E33.53408
G1 X41.333 Y46.005 E33.54684
G1 X41.449 Y46.023 E33.55114
G1 X41.737 Y46.095 E33.562
G1 X41.879 Y46.149 E33.56756
G1 X42.187 Y46.309 E33.58026
G1 X42.288 Y46.383 E33.58484
G1 X42.557 Y46.627 E33.59812
G1 X42.619 Y46.705 E33.60177
G1 X42.814 Y46.997 E33.61462
G1 X42.965 Y47.373 E33.62944
G1 X43.004 Y47.528 E33.63529
G1 X43.04 Y47.824 E33.6462
G1 X43.04 Y47.983 E33.65201
G1 X42.988 Y48.368 E33.66623
G1 X42.827 Y48.787 E33.68265
G1 X42.619 Y49.103 E33.69649
G1 X42.512 Y49.225 E33.70243
G1 X42.288 Y49.425 E33.71341
