;FLAVOR:Marlin
;TIME:4713
;Filament used: 3.9521m
;Layer height: 0.2
;MINX:19.594
;MINY:19.955
;MINZ:0.2
;MAXX:118.673
;MAXY:68.035
;MAXZ:20.28
;TARGET_MACHINE.NAME:Kingroon KP3S Pro
;Generated with Cura_SteamEngine 5.7.1
M140 S70
M105
M190 S70
M104 S240
M105
M109 S240
M82 ;absolute extrusion mode
G28 ; home all axes
 M117 Purge extruder
 G92 E0 ; reset extruder
 G1 Z1.0 F3000 ; move z up little to prevent scratching of surface
 G1 X2 Y20 Z0.3 F5000.0 ; move to start-line position
 G1 X2 Y175.0 Z0.3 F1500.0 E15 ; draw 1st line
 G1 X2 Y175.0 Z0.4 F5000.0 ; move to side a little
 G1 X2 Y20 Z0.4 F1500.0 E30 ; draw 2nd line
 G92 E0 ; reset extruder
 G1 Z1.0 F3000 ; move z up little to prevent scratching of surface
G92 E0
G92 E0
G1 F2400 E-1
;LAYER_COUNT:83
;LAYER:0
M107
G1 F240 Z0.6
G0 F6000 X29.59 Y24.955 Z0.6
;TYPE:SKIRT
G1 F240 Z0.2
G1 F2400 E0
G1 F900 X30.351 Y24.029 E0.04385
G1 X30.963 Y23.364 E0.07692
G1 X31.807 Y22.597 E0.11864
G1 X32.622 Y21.984 E0.15595
G1 X33.488 Y21.445 E0.19327
G1 X34.328 Y21.017 E0.22776
G1 X35.348 Y20.607 E0.26798
G1 X36.324 Y20.313 E0.30528
G1 X37.283 Y20.115 E0.3411
G1 X38.22 Y20.002 E0.37563
G1 X38.829 Y19.968 E0.39795
G1 X39.436 Y19.955 E0.42016
G1 X98.444 Y19.955 E2.57904
G1 X99.354 Y19.969 E2.61233
G1 X100.37 Y20.034 E2.64958
G1 X101.342 Y20.18 E2.68554
G1 X102.372 Y20.431 E2.72433
G1 X103.337 Y20.761 E2.76164
G1 X104.269 Y21.174 E2.79894
G1 X105.096 Y21.628 E2.83345
G1 X106.009 Y22.242 E2.87371
G1 X106.8 Y22.887 E2.91105
G1 X107.527 Y23.593 E2.94812
G1 X108.088 Y24.232 E2.97923
G1 X110.115 Y26.679 E3.09549
G1 X111.738 Y28.522 E3.18533
G1 X113.441 Y30.35 E3.27674
G1 X115.098 Y32.05 E3.36359
G1 X115.785 Y32.831 E3.40165
G1 X116.561 Y33.914 E3.45039
G1 X116.786 Y34.275 E3.46596
G1 X117.292 Y35.186 E3.50408
G1 X117.841 Y36.465 E3.555
G1 X117.976 Y36.847 E3.56983
G1 X118.262 Y37.803 E3.60633
G1 X118.534 Y39.236 E3.6597
G1 X118.583 Y39.654 E3.6751
G1 X118.662 Y40.819 E3.71782
G1 X118.672 Y41.502 E3.74281
G1 X118.673 Y47.306 E3.95515
G1 X118.659 Y48.21 E3.98823
G1 X118.602 Y49.183 E4.02389
G1 X118.562 Y49.548 E4.03733
G1 X118.405 Y50.575 E4.07534
G1 X118.185 Y51.484 E4.10955
G1 X117.989 Y52.102 E4.13327
G1 X117.854 Y52.487 E4.1482
G1 X117.472 Y53.432 E4.18549
G1 X117.014 Y54.33 E4.22237
G1 X116.528 Y55.125 E4.25646
G1 X115.926 Y55.979 E4.29469
G1 X115.033 Y57.005 E4.34445
G1 X114.738 Y57.303 E4.3598
G1 X113.97 Y58.005 E4.39786
G1 X113.199 Y58.596 E4.4334
G1 X112.395 Y59.121 E4.46854
G1 X111.542 Y59.606 E4.50444
G1 X110.653 Y60.016 E4.54025
G1 X109.704 Y60.363 E4.57722
G1 X108.998 Y60.582 E4.60427
G1 X107.902 Y60.88 E4.64582
G1 X105.374 Y61.609 E4.74208
G1 X102.989 Y62.367 E4.83364
G1 X88.447 Y67.221 E5.39453
G1 X87.598 Y67.491 E5.42712
G1 X86.725 Y67.726 E5.4602
G1 X85.59 Y67.925 E5.50236
G1 X84.389 Y68.013 E5.54642
G1 X83.153 Y68.035 E5.59164
G1 X54.668 Y68.034 E6.6338
G1 X53.934 Y68.021 E6.66066
G1 X52.915 Y67.956 E6.69802
G1 X51.893 Y67.799 E6.73585
G1 X50.779 Y67.517 E6.77789
G1 X49.562 Y67.135 E6.82456
G1 X33.921 Y61.927 E7.42769
G1 X31.568 Y61.217 E7.51761
G1 X30.655 Y60.975 E7.55217
G1 X30.354 Y60.88 E7.56371
G1 X29.1 Y60.531 E7.61134
G1 X28.333 Y60.286 E7.6408
G1 X28.034 Y60.176 E7.65245
G1 X27.071 Y59.775 E7.69062
G1 X25.894 Y59.138 E7.73958
G1 X25.573 Y58.936 E7.75346
G1 X24.736 Y58.357 E7.79069
G1 X23.959 Y57.715 E7.82757
G1 X23.352 Y57.129 E7.85844
G1 X22.611 Y56.318 E7.89863
G1 X22.001 Y55.52 E7.93538
G1 X21.514 Y54.774 E7.96797
G1 X21.028 Y53.921 E8.00389
G1 X20.618 Y53.032 E8.03971
G1 X20.266 Y52.07 E8.07718
G1 X19.966 Y51.04 E8.11643
G1 X19.731 Y49.752 E8.16433
G1 X19.675 Y49.277 E8.18183
G1 X19.604 Y48.178 E8.22212
G1 X19.594 Y47.514 E8.24642
G1 X19.594 Y41.505 E8.46627
G1 X19.607 Y40.773 E8.49305
G1 X19.668 Y39.784 E8.5293
G1 X19.711 Y39.389 E8.54384
G1 X19.853 Y38.457 E8.57833
G1 X20.109 Y37.408 E8.61784
G1 X20.316 Y36.772 E8.64231
G1 X20.457 Y36.382 E8.65748
G1 X20.859 Y35.419 E8.69566
G1 X21.501 Y34.238 E8.74484
G1 X21.738 Y33.861 E8.76113
G1 X22.346 Y32.998 E8.79975
G1 X23.106 Y32.114 E8.84241
G1 X23.969 Y31.218 E8.88792
G1 X24.55 Y30.634 E8.91806
G1 X26.272 Y28.803 E9.01002
G1 X27.929 Y26.937 E9.10132
G1 X29.59 Y24.955 E9.19593
G0 F6000 X29.927 Y25.238
G1 F900 X30.675 Y24.327 E9.23906
G1 X31.287 Y23.662 E9.27212
G1 X32.072 Y22.948 E9.31095
G1 X32.855 Y22.357 E9.34684
G1 X33.688 Y21.837 E9.38276
G1 X34.528 Y21.409 E9.41725
G1 X35.475 Y21.028 E9.4546
G1 X36.414 Y20.744 E9.49049
G1 X37.336 Y20.552 E9.52495
G1 X38.273 Y20.439 E9.55948
G1 X38.838 Y20.408 E9.58018
G1 X39.445 Y20.395 E9.60239
G1 X98.438 Y20.395 E11.76072
G1 X99.327 Y20.408 E11.79325
G1 X100.305 Y20.469 E11.8291
G1 X101.277 Y20.615 E11.86506
G1 X102.23 Y20.848 E11.90095
G1 X103.159 Y21.164 E11.93685
G1 X104.057 Y21.56 E11.97276
G1 X104.884 Y22.014 E12.00728
G1 X105.732 Y22.584 E12.04466
G1 X106.494 Y23.203 E12.08058
G1 X107.196 Y23.883 E12.11634
G1 X107.749 Y24.513 E12.147
G1 X109.776 Y26.96 E12.26326
G1 X111.416 Y28.822 E12.35404
G1 X113.126 Y30.657 E12.4458
G1 X114.768 Y32.341 E12.53186
G1 X115.427 Y33.087 E12.56827
G1 X116.203 Y34.17 E12.61702
G1 X116.402 Y34.489 E12.63077
G1 X116.888 Y35.36 E12.66726
G1 X117.437 Y36.639 E12.71819
G1 X117.554 Y36.973 E12.73113
G1 X117.84 Y37.929 E12.76764
G1 X118.097 Y39.288 E12.81824
G1 X118.144 Y39.684 E12.83283
G1 X118.222 Y40.826 E12.87471
G1 X118.232 Y41.502 E12.89945
G1 X118.233 Y47.3 E13.11157
G1 X118.22 Y48.184 E13.14392
G1 X118.164 Y49.136 E13.17881
G1 X118.127 Y49.482 E13.19154
G1 X117.977 Y50.471 E13.22814
G1 X117.757 Y51.38 E13.26236
G1 X117.574 Y51.957 E13.2845
G1 X117.446 Y52.323 E13.29869
G1 X117.08 Y53.233 E13.33457
G1 X116.639 Y54.101 E13.37019
G1 X116.168 Y54.872 E13.40325
G1 X115.594 Y55.69 E13.43981
G1 X114.72 Y56.695 E13.48854
G1 X114.425 Y56.993 E13.50388
G1 X113.702 Y57.656 E13.53977
G1 X112.931 Y58.247 E13.57531
G1 X112.177 Y58.739 E13.60825
G1 X111.358 Y59.206 E13.64274
G1 X110.469 Y59.616 E13.67856
G1 X109.574 Y59.943 E13.71342
G1 X108.883 Y60.157 E13.73989
G1 X107.787 Y60.455 E13.78144
G1 X105.252 Y61.186 E13.87797
G1 X102.856 Y61.948 E13.96995
G1 X88.314 Y66.802 E14.53085
G1 X87.484 Y67.066 E14.56271
G1 X86.611 Y67.301 E14.59579
G1 X85.558 Y67.486 E14.6349
G1 X84.381 Y67.573 E14.67808
G1 X83.153 Y67.595 E14.72302
G1 X54.675 Y67.594 E15.76492
G1 X53.961 Y67.582 E15.79104
G1 X52.981 Y67.521 E15.82697
G1 X52.001 Y67.372 E15.86323
G1 X50.911 Y67.097 E15.90436
G1 X49.701 Y66.718 E15.95075
G1 X34.048 Y61.506 E16.55435
G1 X31.687 Y60.794 E16.64457
G1 X30.787 Y60.555 E16.67864
G1 X30.486 Y60.46 E16.69019
G1 X29.234 Y60.112 E16.73773
G1 X28.484 Y59.873 E16.76653
G1 X28.202 Y59.77 E16.77751
G1 X27.28 Y59.388 E16.81403
G1 X26.128 Y58.765 E16.86194
G1 X25.823 Y58.574 E16.87511
G1 X25.016 Y58.018 E16.91096
G1 X24.265 Y57.398 E16.94659
G1 X23.658 Y56.812 E16.97746
G1 X22.96 Y56.05 E17.01527
G1 X22.369 Y55.279 E17.05081
G1 X21.896 Y54.556 E17.08242
G1 X21.428 Y53.737 E17.11693
G1 X21.018 Y52.848 E17.15275
G1 X20.679 Y51.919 E17.18893
G1 X20.399 Y50.961 E17.22544
G1 X20.164 Y49.673 E17.27334
G1 X20.114 Y49.248 E17.289
G1 X20.044 Y48.171 E17.32849
G1 X20.034 Y47.507 E17.35278
G1 X20.034 Y41.512 E17.57212
G1 X20.046 Y40.8 E17.59817
G1 X20.105 Y39.832 E17.63365
G1 X20.146 Y39.455 E17.64753
G1 X20.288 Y38.523 E17.68202
G1 X20.527 Y37.544 E17.71889
G1 X20.73 Y36.921 E17.74286
G1 X20.863 Y36.551 E17.75724
G1 X21.246 Y35.629 E17.79377
G1 X21.888 Y34.448 E17.84295
G1 X22.098 Y34.114 E17.85739
G1 X22.68 Y33.285 E17.89444
G1 X23.44 Y32.401 E17.9371
G1 X24.281 Y31.528 E17.98145
G1 X24.871 Y30.935 E18.01205
G1 X26.593 Y29.104 E18.10401
G1 X28.258 Y27.229 E18.19575
G1 X29.927 Y25.238 E18.2908
G0 F6000 X30.264 Y25.521
G1 F900 X30.999 Y24.625 E18.3332
G1 X31.611 Y23.96 E18.36627
G1 X32.337 Y23.299 E18.40219
G1 X33.089 Y22.73 E18.43669
G1 X33.888 Y22.229 E18.47119
G1 X34.728 Y21.801 E18.50569
G1 X35.603 Y21.449 E18.54019
G1 X36.505 Y21.175 E18.57468
G1 X37.389 Y20.989 E18.60773
G1 X38.326 Y20.876 E18.64226
G1 X38.847 Y20.848 E18.66135
G1 X39.454 Y20.835 E18.68356
G1 X98.432 Y20.835 E20.84134
G1 X99.3 Y20.847 E20.8731
G1 X100.24 Y20.904 E20.90756
G1 X101.173 Y21.043 E20.94207
G1 X102.089 Y21.265 E20.97655
G1 X102.982 Y21.567 E21.01104
G1 X103.845 Y21.946 E21.04552
G1 X104.672 Y22.4 E21.08004
G1 X105.455 Y22.926 E21.11455
G1 X106.188 Y23.519 E21.14905
G1 X106.865 Y24.173 E21.18348
G1 X107.41 Y24.794 E21.21371
G1 X109.437 Y27.241 E21.32996
G1 X111.094 Y29.122 E21.42168
G1 X112.811 Y30.964 E21.51381
G1 X114.439 Y32.633 E21.59911
G1 X115.07 Y33.344 E21.63389
G1 X115.83 Y34.403 E21.68158
G1 X116.018 Y34.704 E21.69456
G1 X116.484 Y35.534 E21.72939
G1 X117.022 Y36.785 E21.77921
G1 X117.133 Y37.1 E21.79143
G1 X117.408 Y38.011 E21.82624
G1 X117.66 Y39.341 E21.87577
G1 X117.705 Y39.714 E21.88951
G1 X117.782 Y40.833 E21.93055
G1 X117.792 Y41.502 E21.95503
G1 X117.793 Y47.294 E22.16694
G1 X117.781 Y48.158 E22.19855
G1 X117.726 Y49.089 E22.23267
G1 X117.689 Y49.435 E22.2454
G1 X117.549 Y50.367 E22.27988
G1 X117.329 Y51.276 E22.3141
G1 X117.159 Y51.812 E22.33467
G1 X117.038 Y52.159 E22.34812
G1 X116.687 Y53.034 E22.38261
G1 X116.263 Y53.872 E22.41697
G1 X115.807 Y54.62 E22.44902
G1 X115.262 Y55.401 E22.48386
G1 X114.388 Y56.406 E22.53259
G1 X114.127 Y56.669 E22.54615
G1 X113.434 Y57.307 E22.58061
G1 X112.69 Y57.879 E22.61495
G1 X111.958 Y58.357 E22.64693
G1 X111.174 Y58.806 E22.67999
G1 X110.285 Y59.216 E22.7158
G1 X109.444 Y59.523 E22.74856
G1 X108.768 Y59.732 E22.77445
G1 X107.672 Y60.03 E22.816
G1 X105.13 Y60.763 E22.91279
G1 X102.713 Y61.532 E23.00559
G1 X102.091 Y61.746 E23.02965
G1 X88.181 Y66.383 E23.5661
G1 X87.37 Y66.641 E23.59724
G1 X86.497 Y66.876 E23.63031
G1 X85.525 Y67.047 E23.66642
G1 X84.373 Y67.133 E23.70869
G1 X83.153 Y67.155 E23.75333
G1 X54.682 Y67.154 E24.79497
G1 X53.988 Y67.143 E24.82037
G1 X53.046 Y67.086 E24.85489
G1 X52.109 Y66.945 E24.88956
G1 X51.019 Y66.67 E24.93069
G1 X49.84 Y66.301 E24.97589
G1 X34.175 Y61.085 E25.57995
G1 X31.806 Y60.371 E25.67047
G1 X30.919 Y60.135 E25.70405
G1 X30.618 Y60.04 E25.7156
G1 X29.368 Y59.693 E25.76306
G1 X28.634 Y59.459 E25.79125
G1 X28.369 Y59.363 E25.80156
G1 X27.489 Y59.001 E25.83637
G1 X26.361 Y58.392 E25.88327
G1 X26.072 Y58.212 E25.89573
G1 X25.296 Y57.678 E25.93019
G1 X24.571 Y57.081 E25.96455
G1 X23.964 Y56.495 E25.99542
G1 X23.309 Y55.782 E26.03084
G1 X22.737 Y55.038 E26.06518
G1 X22.278 Y54.337 E26.09583
G1 X21.828 Y53.553 E26.1289
G1 X21.418 Y52.664 E26.16472
G1 X21.101 Y51.795 E26.19857
G1 X20.832 Y50.882 E26.23339
G1 X20.597 Y49.594 E26.28129
G1 X20.553 Y49.219 E26.2951
G1 X20.484 Y48.164 E26.33378
G1 X20.474 Y47.5 E26.35808
G1 X20.474 Y41.519 E26.5769
G1 X20.485 Y40.826 E26.60226
G1 X20.542 Y39.88 E26.63693
G1 X20.581 Y39.521 E26.65014
G1 X20.716 Y38.627 E26.68322
G1 X20.946 Y37.68 E26.71888
G1 X21.144 Y37.07 E26.74234
G1 X21.27 Y36.719 E26.75598
G1 X21.633 Y35.839 E26.79081
G1 X22.275 Y34.658 E26.83999
G1 X22.47 Y34.349 E26.85336
G1 X23.014 Y33.572 E26.88806
G1 X23.774 Y32.688 E26.93071
G1 X24.593 Y31.838 E26.9739
G1 X25.192 Y31.236 E27.00497
G1 X26.914 Y29.405 E27.09693
G1 X28.587 Y27.521 E27.18911
G1 X30.264 Y25.521 E27.2846
G0 F6000 X30.601 Y25.804
G1 F900 X31.323 Y24.923 E27.32628
G1 X31.935 Y24.258 E27.35934
G1 X32.603 Y23.649 E27.39241
G1 X33.323 Y23.102 E27.4255
G1 X34.088 Y22.621 E27.45856
G1 X34.893 Y22.209 E27.49164
G1 X35.731 Y21.87 E27.52471
G1 X36.596 Y21.606 E27.5578
G1 X37.48 Y21.42 E27.59085
G1 X38.378 Y21.313 E27.62394
G1 X38.856 Y21.288 E27.64145
G1 X39.463 Y21.275 E27.66366
G1 X98.426 Y21.275 E29.82089
G1 X99.274 Y21.286 E29.85192
G1 X100.176 Y21.339 E29.88498
G1 X101.07 Y21.471 E29.91804
G1 X101.949 Y21.682 E29.95111
G1 X102.806 Y21.97 E29.98419
G1 X103.634 Y22.332 E30.01725
G1 X104.427 Y22.766 E30.05033
G1 X105.179 Y23.269 E30.08343
G1 X105.883 Y23.836 E30.1165
G1 X106.534 Y24.463 E30.14957
G1 X107.071 Y25.075 E30.17936
G1 X109.098 Y27.522 E30.29561
G1 X110.772 Y29.422 E30.38825
G1 X112.496 Y31.271 E30.48074
G1 X114.111 Y32.926 E30.56535
G1 X114.713 Y33.601 E30.59844
G1 X115.457 Y34.637 E30.6451
G1 X115.635 Y34.921 E30.65736
G1 X116.08 Y35.708 E30.69044
G1 X116.607 Y36.932 E30.7392
G1 X116.712 Y37.228 E30.75069
G1 X116.976 Y38.093 E30.78378
G1 X117.223 Y39.395 E30.83226
G1 X117.266 Y39.744 E30.84513
G1 X117.342 Y40.84 E30.88532
G1 X117.352 Y41.502 E30.90954
G1 X117.353 Y47.288 E31.12123
G1 X117.342 Y48.132 E31.15211
G1 X117.288 Y49.043 E31.1855
G1 X117.254 Y49.37 E31.19753
G1 X117.121 Y50.264 E31.2306
G1 X116.909 Y51.143 E31.26368
G1 X116.743 Y51.668 E31.28382
G1 X116.629 Y51.996 E31.29653
G1 X116.294 Y52.836 E31.32961
G1 X115.887 Y53.643 E31.36268
G1 X115.445 Y54.369 E31.39378
G1 X114.93 Y55.112 E31.42685
G1 X114.056 Y56.117 E31.47558
G1 X113.829 Y56.346 E31.48738
G1 X113.165 Y56.959 E31.52044
G1 X112.449 Y57.511 E31.55352
G1 X111.739 Y57.975 E31.58455
G1 X110.955 Y58.424 E31.6176
G1 X110.134 Y58.803 E31.65069
G1 X109.314 Y59.103 E31.68263
G1 X108.653 Y59.307 E31.70794
G1 X107.557 Y59.605 E31.7495
G1 X105.008 Y60.34 E31.84655
G1 X102.57 Y61.116 E31.94016
G1 X101.952 Y61.329 E31.96408
G1 X88.047 Y65.964 E32.50032
G1 X87.256 Y66.216 E32.5307
G1 X86.383 Y66.451 E32.56377
G1 X85.492 Y66.608 E32.59687
G1 X84.365 Y66.693 E32.63822
G1 X83.153 Y66.715 E32.68257
G1 X54.689 Y66.714 E33.72396
G1 X54.014 Y66.704 E33.74866
G1 X53.111 Y66.651 E33.78175
G1 X52.217 Y66.518 E33.81482
G1 X51.127 Y66.243 E33.85595
G1 X49.979 Y65.884 E33.89996
G1 X34.302 Y60.664 E34.50448
G1 X31.925 Y59.948 E34.5953
G1 X31.051 Y59.715 E34.6284
G1 X30.75 Y59.62 E34.63994
G1 X29.502 Y59.274 E34.68733
G1 X28.783 Y59.045 E34.71493
G1 X28.535 Y58.956 E34.72457
G1 X27.698 Y58.614 E34.75765
G1 X26.593 Y58.018 E34.80359
G1 X26.321 Y57.849 E34.8153
G1 X25.575 Y57.338 E34.84839
G1 X24.877 Y56.764 E34.88145
G1 X24.27 Y56.178 E34.91232
G1 X23.657 Y55.513 E34.94541
G1 X23.105 Y54.797 E34.97848
G1 X22.66 Y54.118 E35.00818
G1 X22.21 Y53.334 E35.04126
G1 X21.831 Y52.513 E35.07434
G1 X21.523 Y51.67 E35.10718
G1 X21.265 Y50.803 E35.14027
G1 X21.03 Y49.515 E35.18817
G1 X20.992 Y49.19 E35.20014
G1 X20.924 Y48.157 E35.23802
G1 X20.914 Y47.493 E35.26232
G1 X20.914 Y41.526 E35.48063
G1 X20.924 Y40.853 E35.50525
G1 X20.98 Y39.926 E35.53923
G1 X21.016 Y39.587 E35.5517
G1 X21.151 Y38.693 E35.58478
G1 X21.365 Y37.815 E35.61784
G1 X21.558 Y37.218 E35.6408
G1 X21.677 Y36.886 E35.6537
G1 X22.02 Y36.049 E35.68679
G1 X22.662 Y34.868 E35.73597
G1 X22.831 Y34.601 E35.74753
G1 X23.348 Y33.859 E35.78062
G1 X24.108 Y32.975 E35.82327
G1 X24.905 Y32.148 E35.86529
G1 X25.513 Y31.537 E35.89683
G1 X27.235 Y29.706 E35.98879
G1 X28.916 Y27.813 E36.08141
G1 X30.601 Y25.804 E36.17735
G1 F2400 E35.17735
G1 F240 Z0.6
;MESH:VS sensors holder-Body.stl
G0 F6000 X36.087 Y46.636 Z0.6
;TYPE:WALL-INNER
G1 F240 Z0.2
G1 F2400 E36.17735
G1 F900 X35.839 Y46.732 E36.18707
G1 X35.474 Y46.82 E36.20081
G1 X35.284 Y46.836 E36.20779
G1 X34.98 Y46.836 E36.21891
G1 X34.713 Y46.804 E36.22875
G1 X34.425 Y46.732 E36.23961
G1 X34.182 Y46.64 E36.24912
G1 X33.834 Y46.454 E36.26355
G1 X33.684 Y46.342 E36.2704
G1 X33.464 Y46.146 E36.28118
G1 X33.292 Y45.952 E36.29067
G1 X33.12 Y45.703 E36.30174
G1 X32.991 Y45.455 E36.31197
G1 F821.6 X32.795 Y44.989 E36.33223
G1 F776.5 X32.756 Y44.492 E36.35337
G1 F781.1 X32.789 Y44.058 E36.37172
G1 F826.7 X32.991 Y43.533 E36.39412
G1 F900 X33.115 Y43.291 E36.40407
G1 X33.287 Y43.039 E36.41523
G1 X33.472 Y42.83 E36.42544
G1 X33.692 Y42.639 E36.4361
G1 X33.835 Y42.533 E36.44262
G1 X34.183 Y42.349 E36.45702
G1 X34.425 Y42.256 E36.4665
G1 X34.79 Y42.168 E36.48024
G1 X34.98 Y42.152 E36.48722
